icons/mobile/24/svg/warning-24.svg

<svg width="24" height="24" viewBox="0 0 24 24" fill="none" xmlns="http://www.w3.org/2000/svg">
<path d="M12 15.5C12.5523 15.5 13 15.9477 13 16.5C13 17.0523 12.5523 17.5 12 17.5C11.4477 17.5 11 17.0523 11 16.5C11 15.9477 11.4477 15.5 12 15.5Z" fill="black"/>
<path d="M12 8.5C12.483 8.50001 12.875 8.89201 12.875 9.375V13.125C12.875 13.608 12.483 14 12 14C11.517 14 11.125 13.608 11.125 13.125V9.375C11.125 8.892 11.517 8.5 12 8.5Z" fill="black"/>
<path fill-rule="evenodd" clip-rule="evenodd" d="M11.9629 3C13.1589 3 14.3564 3.59883 15.0234 4.79883L21.0459 15.6299C22.2988 17.8838 20.7632 20.6859 18.1885 20.8291C16.0256 20.9491 13.9644 21 12.0185 21C9.85254 21 7.774 20.9372 5.791 20.8262C3.23115 20.6821 1.71355 17.8944 2.94725 15.6475L8.8955 4.81543C9.55946 3.6055 10.7609 3.00007 11.9629 3ZM11.9619 4.75C11.6508 4.75003 10.8776 4.83936 10.4277 5.6582L4.47948 16.4902C4.05749 17.2592 4.34236 17.9383 4.48436 18.1943C4.62355 18.4445 5.03738 19.031 5.88671 19.0791C7.91755 19.1931 9.97977 19.251 12.0156 19.251C14.0325 19.251 16.0759 19.194 18.0889 19.082C18.9539 19.034 19.3746 18.4357 19.5146 18.1807C19.6566 17.9236 19.9395 17.2453 19.5146 16.4805L13.4922 5.64941C13.0974 4.93952 12.4589 4.78273 12.0986 4.75488L11.9619 4.75Z" fill="black"/>
</svg>

<!-- This Source Code Form is subject to the terms of the Mozilla Public
   - License, v. 2.0. If a copy of the MPL was not distributed with this
   - file, You can obtain one at http://mozilla.org/MPL/2.0/. -->
<svg xmlns="http://www.w3.org/2000/svg" width="24" height="24" fill="none" viewBox="0 0 24 24">
    <path fill="#000" d="M12 15.5a1 1 0 1 1 0 2 1 1 0 0 1 0-2m0-7c.483 0 .875.392.875.875v3.75a.875.875 0 0 1-1.75 0v-3.75c0-.483.392-.875.875-.875" />
    <path fill="#000" fill-rule="evenodd" d="M11.963 3c1.196 0 2.393.599 3.06 1.799l6.023 10.83c1.253 2.255-.283 5.057-2.857 5.2a111 111 0 0 1-12.398-.003c-2.56-.144-4.077-2.932-2.844-5.178L8.895 4.815A3.46 3.46 0 0 1 11.964 3m-.001 1.75c-.311 0-1.084.09-1.534.908L4.479 16.49a1.74 1.74 0 0 0 .005 1.704c.14.25.553.837 1.403.885a110 110 0 0 0 12.202.003 1.72 1.72 0 0 0 1.426-.901 1.73 1.73 0 0 0 0-1.7L13.492 5.648a1.7 1.7 0 0 0-1.393-.894z" clip-rule="evenodd" />
</svg>
